X:169
T: ES WAREN JUNGGESELLEN
N: E1305B
O: Europa, Mitteleuropa, Deutschland
R: Staende -, Soldaten - Lied, Reiter
M: 2/4
L: 1/8
K: G
D | G2FE | D2G2 | A2G2 | A2G
D | G2FE | D2G2 | A2G2 | A2G
d | BBBB | B2B
d | edcB | A2z
G | FAAA | d3
c | BBAA | G2z

